X:1
T:Ivankovic, 87.87.88.87
T:Ivankovic, 87.87.88.87
T:Alexander Zarnock, arr. 1885
T:Public Domain Courtesy of the Cyber Hymnal™
C:Alexander Zarnock, arr. 1885
Z:Public Domain
Z:Courtesy of the Cyber Hymnal™
%%score ( 1 2 ) ( 3 4 )
L:1/8
Q:1/4=95
M:3/4
K:G
V:1 treble 
V:2 treble 
V:3 bass 
V:4 bass 
V:1
 D2 | [DG]>[DG] [DG]2 [FA]2 | [GB]>[GB] [GB]4 | [FA]>[GB] [Ac]2 [DF]2 | [DA]>[DG] [DG]2 D2 | %5
 [DG]>[DG] [DG]2 [FA]2 | [GB]>[GB] [GB]4 | [FA]>[GB] [Ac]2 [DF]2 | [DA]>[DG] [DG]2 z3/2 [Dd]/ | %9
 [Dd]>[DB] [De]3 [Dd] | [Fd]>[Fc] [Fc]3 [Fc] | [Fc]>[FA] [Fd]3 [Fc] | [Ec]>[DB] [DB]2 D2 | %13
 [DG]>[DG] [DG]2 [FA]2 | [GB]>[GB] [GB]4 | [FA]>[GB] [Ac]2 [DF]2 | [DA]>[DG] [DG]4 |] %17
V:2
 D2 | x6 | x6 | x6 | x4 D2 | x6 | x6 | x6 | x6 | x6 | x6 | x6 | x4 D2 | x6 | x6 | x6 | x6 |] %17
V:3
 [G,B,]2 | [G,B,]>[G,B,] [G,B,]2 [D,D]2 | [G,D]>[G,D] [G,D]4 | [D,D]>[D,D] [D,D]2 [D,A,]2 | %4
 [G,C]>[G,B,] [G,B,]2 [G,B,]2 | [G,B,]>[G,B,] [G,B,]2 [D,D]2 | [G,D]>[G,D] [G,D]4 | %7
 [D,D]>[D,D] [D,D]2 [D,A,]2 | [G,C]>[G,B,] [G,B,]2 z3/2 [G,B,]/ | [G,B,]>G, [G,C]3 [G,B,] | %10
 [D,B,]>[D,A,] [D,A,]3 [D,A,] | [D,A,]>[D,A,] [D,A,]3 [D,A,] | G,>G, G,2 [G,B,]2 | %13
 [G,B,]>[G,B,] [G,B,]2 [D,D]2 | [G,D]>[G,D] [G,D]4 | [D,D]>[D,D] [D,D]2 [D,A,]2 | %16
 [G,C]>[G,B,] [G,B,]4 |] %17
V:4
 x2 | x6 | x6 | x6 | x6 | x6 | x6 | x6 | x6 | x3/2 G,/ x4 | x6 | x6 | G,>G, G,2 x2 | x6 | x6 | x6 | %16
 x6 |] %17

